X: 48
T: Ungdomssynden
C: Röjås Jonas
R: Polska
O: Dalarna, Boda
Z: Håkan Lidén, 2008-09-27
M: 9/8
L: 1/8
K: G
B | "G" B2 A G B2 d2 g | "D" gf f2 a2 A2 B | c2 cd cA F2 A | "G" G2 A (4B/A/B/c/ d2 c |
"G" B2 A G B2 d2 g | "D" gf f2 a2 A2 B | c2 cd cA F2 A | "G" A G2 G3-G2 :|
|: g | "C" g2 e c3 c2 e | "G" e d2 B6 yy| "D" D2 F A d2 f2 a | "G" g2 ga ge d2 g |
"C" g2 e c3 c2 e | "G" e d2 B6 y| "D" D2 F A d2 f2 a | "G" g3 g3-g2 y:|

